X: 104
T: Ships Are Sailing
B: New England Fiddler's Repertoire (Randy Miller et al)
B: O'Neill's "1001"
N: arr. T. Traub 11-19-2002
R: Reel
M: 4/4
L: 1/8
K: Edor
ed |\
"Em"Beed BcdB | "D"ADF{E}D ADFD | "Em"E2{D}EF GFGA |\
[1,3 "Am"Beef gf :|[2,4 "B"Bee^d "Em"e2 :|
|: ef |\
"Em"gfga bgeg | "D"fefg afdf |\
[1,3 "Em"gfga bgeg | "D"afdf e2 :|\
[2,4 "G"g2bg "D"f2af | "Bm"edef "Em"e2 :|

%%sep 1 1 500

